X: 780
T: The Blazing Turf Fire.
C:Cronin.
B:O'Neill's Music of Ireland
N:O'Neill's - 780
Z:Transcribed by Stephen Foy (shf@access.digex.net)
Z:abc 1.6
M:6/8
R:Jig
K:D
A|ded d(f/e/d)|cAB {d}cBc|ded afd|ecA ABc|ded d(f/e/d)|\
cAB cde|{g}fde dcA|GED D2:|
||G|E(DE/F/) GAG|EDE G2 A|E(DE/F/) GAc|BAG A2 G|\
E(DE/F/) GAG|E2 E Geg|{g}fde dcA|GED D2:|


